X: 506
T: Da luotuo
%%abc-version 2.0
%%abcx-abcm2ps-target-version 5.9.1 (29 Sep 2008)
%%abc-creator hum2abc beta
%%abcx-conversion-date 2013/10/02 07:52:30
%%abc-edited-by Helmut Schaffrath
%%humdrum-veritas 150818789
%%humdrum-veritas-data 1075334796
%%continueall 1
%%barnumbers 0
L: 1/8
M: 2/4
K: Bb
c'2g2 [I:setbarnb 1]| 
f3(3g/ f/ =e/ | 
f4 | 
f2=e2 | 
f'2c'2 | 
g3(3g/ f/ =e/ | 
f4 | 
f'f'2d' | 
c'c'2g | 
f2c'2 | 
g3(3g/ f/ =e/ | 
gg2f/ d/ | 
dc3 | 
g2f d | 
c4 | 
f =e f g | 
c' b/ g/ f =e | 
gf2f/ d/ | 
dc2B | 
g2f d | 
c4 |]  



